X: 174
T: I Intend to Take His Horses
C: Teton Sioux band 1911-1914
N: Derived from sioux169.krn
O: South Dakota, U.S.A.
N: Teton Sioux Music by Frances Densmore, 1918
Z: transcribed to **kern format by Craig Sapp
L: 1/8
M: 3/4
Q: 1/4=58
K: D clef=bass
%%linebreak <none>
D2D2-D3/ A,/ [I:setbarnb 1]||  
[M:2/4]D2E3/ D/ ||  
[M:3/4]A,> A, D< A,-A,2 | 
(3A, A, D D< A, G,/ G,3/ | 
(3A, E, D, (3D, D, A,, D,3/ E,/ | 
E, D, D, C, A,,3/ A,,/ ||  
[M:2/4]A,,3A,, | 
A,,4 ||  
[M:3/4]A, A, A, DA,2 | 
A,> A, A, D A,3/ A,/ ||  
[M:2/4]G, G, G, G,/ G,/ ||  
[M:5/8]G, A, E, D, D, | 
D, A,, D, D, D,/ D,/ ||  
[M:3/4]E, E, E, D, (D, C,) | 
A,,> A,,A,,4 | 
A,,6 |]  



